Sources/FrostedUI/Resources/Icons.xcassets/starFilled24.imageset/star-filled-24.svg

<svg width="24" height="24" viewBox="0 0 24 24" fill="none" xmlns="http://www.w3.org/2000/svg" data-fui-icon="true">
  <path
    d="M10.0093 1.89526C10.9146 0.317354 13.2648 0.370376 14.0737 2.05347L16.4058 6.90698L21.7749 7.61011C23.6871 7.86044 24.4715 10.2219 23.0552 11.5574L19.1353 15.2527L20.1196 20.531C20.4762 22.4442 18.4525 23.8821 16.7651 22.9724L11.9995 20.4031L7.23486 22.9724C5.5476 23.8817 3.52469 22.4443 3.88135 20.531L4.86377 15.2517L0.944824 11.5574C-0.471392 10.2219 0.313089 7.86055 2.2251 7.61011L7.59326 6.90698L9.92627 2.05347L10.0093 1.89526ZM17.5815 21.7C17.6197 21.7142 17.6584 21.7241 17.6968 21.7322C17.6232 21.7166 17.5492 21.691 17.4771 21.6521L17.5815 21.7ZM18.645 20.8064C18.6601 20.8876 18.6619 20.9664 18.6538 21.0417C18.6578 21.0045 18.6601 20.9663 18.6587 20.9275C18.6572 20.8877 18.6527 20.8466 18.645 20.8054V20.8064ZM11.8677 18.821C11.8575 18.8227 11.8475 18.8248 11.8374 18.8269C11.8475 18.8248 11.8575 18.8228 11.8677 18.821ZM17.5776 15.0496C17.5796 15.0828 17.5841 15.116 17.5903 15.1492C17.578 15.0827 17.5741 15.0158 17.5786 14.95L17.5776 15.0496Z"
    fill="currentColor"
  />
</svg>

<svg xmlns="http://www.w3.org/2000/svg" width="24" height="24" fill="none" data-fui-icon="true" viewBox="0 0 24 24"><path fill="currentColor" d="M10.01 1.895c.905-1.578 3.255-1.525 4.064.158l2.332 4.854 5.369.703c1.912.25 2.697 2.612 1.28 3.947l-3.92 3.696.985 5.278c.356 1.913-1.668 3.351-3.355 2.441L12 20.403l-4.764 2.57c-1.687.909-3.71-.529-3.354-2.442l.983-5.28-3.92-3.694C-.47 10.222.315 7.861 2.226 7.61l5.368-.703 2.333-4.854zM17.58 21.7a1 1 0 0 0-.104-.048zm-5.713-2.879-.03.006zm5.71-3.771a1 1 0 0 0 0-.1z"/></svg>
